www.topmonks.com/src/icons/img_logo_apify.svg

<svg width="118" height="31" viewBox="0 0 118 31" fill="none" xmlns="http://www.w3.org/2000/svg">
  <title>[logo] Apify</title>
  <g clip-path="url(#clip0)">
    <path fill-rule="evenodd" clip-rule="evenodd"
          d="M68.9942 16.1045H64.6226V10.302H68.9957C70.6113 10.302 71.922 11.6015 71.922 13.2032C71.9225 13.5838 71.8471 13.9607 71.7003 14.3125C71.5534 14.6643 71.3379 14.984 71.066 15.2534C70.7941 15.5229 70.4712 15.7367 70.1157 15.8827C69.7603 16.0287 69.3792 16.1041 68.9942 16.1045ZM69.4362 7.22253H60.6414V24.7322H64.6218V19.1839H69.4347C72.7675 19.1839 75.4688 16.5065 75.4688 13.2032C75.4688 9.89999 72.7682 7.22253 69.4354 7.22253H69.4362ZM84.8181 24.7322H88.7969V18.5224H95.9854V15.3668H88.7969V10.455H97.7311V7.22253H84.8173V24.7322H84.8181ZM112.812 7.22253L108.473 14.4243H108.37L104.237 7.22253H99.7186L106.343 18.09V24.7322H110.347V18.0648L117.048 7.22253H112.812ZM77.836 24.7322H81.8156V7.22253H77.836V24.7322ZM47.1801 18.0389L49.6443 10.8615H49.7467L52.16 18.0389H47.1793H47.1801ZM47.3842 7.22253L40.8125 24.7322H44.8946L46.1267 21.1443H53.2127L54.4448 24.7322H58.6554L52.083 7.22253H47.3849H47.3842Z"
          fill="#02184B"/>
    <path fill-rule="evenodd" clip-rule="evenodd"
          d="M4.08828 3.99085C1.49319 4.31973 -0.316438 6.49321 0.0462583 8.84636L2.84618 27.0161L14.6311 2.65479L4.08828 3.99085Z"
          fill="#6CC04A"/>
    <path fill-rule="evenodd" clip-rule="evenodd"
          d="M30.7919 17.9819L29.7932 4.28779C29.6153 1.85318 27.3721 0.0740477 24.9056 0.412822L20.792 0.975415L29.8517 20.9258C30.5325 20.0985 30.8685 19.0456 30.7912 17.9819"
          fill="#00A7CE"/>
    <path fill-rule="evenodd" clip-rule="evenodd"
          d="M6.93066 30.7959C7.69335 30.8782 8.46473 30.7695 9.17384 30.48L25.412 23.8841L17.6922 7.22253L6.93066 30.7959Z"
          fill="#FF9012"/>
  </g>
  <defs>
    <clipPath id="clip0">
      <rect y="0.370972" width="117.048" height="30.4516" fill="white"/>
    </clipPath>
  </defs>
</svg>

<svg viewBox="0 0 118 31" fill="none" xmlns="http://www.w3.org/2000/svg">
  <g fill-rule="evenodd" clip-rule="evenodd">
    <path
      d="M68.994 16.105h-4.371v-5.803h4.373c1.615 0 2.926 1.3 2.926 2.901a2.87 2.87 0 01-.856 2.05 2.932 2.932 0 01-2.072.852zm.442-8.882h-8.795v17.51h3.98v-5.55h4.814c3.332 0 6.034-2.677 6.034-5.98 0-3.303-2.7-5.98-6.034-5.98h.001zm15.382 17.51h3.979v-6.21h7.188v-3.156h-7.188v-4.912h8.934V7.223H84.817v17.51h.001zm27.994-17.51l-4.339 7.201h-.103l-4.133-7.201h-4.518l6.624 10.867v6.642h4.004v-6.667l6.701-10.842h-4.236zm-34.976 17.51h3.98V7.222h-3.98v17.51zM47.18 18.038l2.464-7.178h.103l2.413 7.178h-4.98zm.204-10.816l-6.572 17.51h4.083l1.232-3.589h7.086l1.232 3.588h4.21l-6.572-17.51h-4.698z"
      fill="#02184B"/>
    <path d="M4.088 3.99C1.493 4.32-.316 6.494.046 8.847l2.8 18.17L14.631 2.655 4.088 3.99z" fill="#6CC04A"/>
    <path
      d="M30.792 17.982l-.999-13.694c-.178-2.435-2.42-4.214-4.887-3.875l-4.114.562 9.06 19.95a4.157 4.157 0 00.94-2.943"
      fill="#00A7CE"/>
    <path d="M6.93 30.796a4.624 4.624 0 002.244-.316l16.238-6.596-7.72-16.661L6.931 30.796z" fill="#FF9012"/>
  </g>
</svg>
